svgs/sharp-solid/file-video.svg

<svg xmlns="http://www.w3.org/2000/svg" viewBox="0 0 384 512"><!--! Font Awesome Pro 6.6.0 by @fontawesome - https://fontawesome.com License - https://fontawesome.com/license (Commercial License) Copyright 2024 Fonticons, Inc. --><path d="M224 0L0 0 0 512l384 0 0-352-160 0L224 0zm32 0l0 128 128 0L256 0zM64 256l160 0 0 160L64 416l0-160zM320 400l-64-32 0-64 64-32 0 128z"/></svg>

<svg xmlns="http://www.w3.org/2000/svg" viewBox="0 0 384 512"><!--! Font Awesome Pro 6.5.2 by @fontawesome - https://fontawesome.com License - https://fontawesome.com/license (Commercial License) Copyright 2024 Fonticons, Inc. --><path d="M224 0H0V512H384V160H224V0zm32 0V128H384L256 0zM64 256H224V416H64V256zM320 400l-64-32V304l64-32V400z"/></svg>
